X:1242
T:The Bush in Bloom
M:C|
L:1/8
R:Reel
B:O'Neill's 1242
N:Collected by McFadden
Z:Transcribed by Trish O'Neil
K:G
ge||d2BG AGEF|G2Bd efage|d2BG AGEd|eaag fdec|
d2BG AGEF|G2Bd efage|d2BG AGEF|GBAF"end"G2||
efg2fg Bgdg|g2bg agef|g2dg Bgdg|egfag2ga|
bg 3.g.g.g agef|gage dega|bgaf gfed|edef gage||
